src/assets/img/unsorted/btn_home.svg

<svg xmlns:xlink="http://www.w3.org/1999/xlink" height="26.3" width="37.6" xmlns="http://www.w3.org/2000/svg"><g transform="translate(18.8 13.15)"><use height="26.3" transform="translate(-18.8 -13.15)" width="37.6" xlink:href="#a"/><use height="19.6" transform="translate(-9.4 -11.25)" width="19.9" xlink:href="#b"/><use height="17.6" transform="translate(-8.4 -10.25)" width="17.9" xlink:href="#c"/></g><defs><path d="M-18.7-6.15h37.35q0 5.1-3.6 8.7-3.6 3.6-8.75 3.6H-6.4q-5.1 0-8.7-3.6-3.6-3.6-3.6-8.7" fill="#527ca3" fill-rule="evenodd" transform="translate(18.7 6.15)" id="e"/><path d="M18.8-7.5v4.7q0 4.3-3 7.3-3.05 3-7.35 3H-8.5q-4.25 0-7.3-3-3-3-3-7.3v-4.7h37.6" fill="#a10069" fill-rule="evenodd" transform="translate(18.8 7.5)" id="f"/><path d="M18.8-1.3v2.65q0 4.3-3 7.3-3.05 3-7.35 3H-8.5q-4.25 0-7.3-3-3-3-3-7.3V-1.3q0-4.3 3-7.35 3-3 7.3-3H8.45q4.3 0 7.35 3 3 3.05 3 7.35" fill="#f0009c" fill-rule="evenodd" transform="translate(18.8 11.65)" id="g"/><path d="M-5.75-5.1Q-1.5-9.8-.2-9.8 1-9.8 5.5-5 9.95-.3 9.95.6q0 1.15-2.7 1.5l.15 3q0 2.85-.8 3.65Q5.55 9.8 0 9.8t-6.6-1.05q-.75-.75-.75-3.6l.15-2.95Q-9.95 1.95-9.95.6q0-1.1 4.2-5.7" fill="#f0009c" fill-rule="evenodd" transform="translate(9.95 9.8)" id="h"/><path d="M-2.05 2.05v4.1h4.1v-4.1h-4.1M-5-4.35Q-1-8.8-.2-8.8q.75 0 5 4.55Q8.95.15 8.95.6q0 .4-2.75.65.5 6.1-.3 6.8-.75.8-5.95.75-5.1 0-5.85-.75-.7-.7-.25-6.7-2.8-.25-2.8-.75 0-.6 3.95-4.95" fill="url(#d)" fill-rule="evenodd" transform="translate(8.95 8.8)" id="i"/><use height="12.3" width="37.35" xlink:href="#e" id="j"/><use height="15" width="37.6" xlink:href="#f" id="k"/><use height="23.3" width="37.6" xlink:href="#g" id="l"/><use height="19.6" width="19.9" xlink:href="#h" id="b"/><use height="17.6" width="17.9" xlink:href="#i" id="c"/><linearGradient gradientTransform="matrix(0 .0079 -.0086 0 1.3 2.25)" gradientUnits="userSpaceOnUse" id="n" spreadMethod="pad" x1="-819.2" x2="819.2"><stop offset="0" stop-color="#c10276"/><stop offset="1" stop-color="#ff009c"/></linearGradient><linearGradient gradientTransform="matrix(0 .007 -.0072 0 .45 -6)" gradientUnits="userSpaceOnUse" id="o" spreadMethod="pad" x1="-819.2" x2="819.2"><stop offset="0" stop-color="#fe9ae0"/><stop offset="1" stop-color="#ff00a6"/></linearGradient><linearGradient gradientTransform="rotate(-134.945) scale(.0109 .0107)" gradientUnits="userSpaceOnUse" id="d" spreadMethod="pad" x1="-819.2" x2="819.2"><stop offset="0" stop-color="#febde9"/><stop offset="1" stop-color="#fff"/></linearGradient><g id="a" transform="translate(18.9 13.15)"><use height="12.3" transform="translate(-18.9 .85)" width="37.35" xlink:href="#j"/><use height="15" transform="translate(-18.9 -3.5)" width="37.6" xlink:href="#k"/><use height="23.3" transform="translate(-18.9 -13.15)" width="37.6" xlink:href="#l"/><use height="21.25" transform="translate(-15.1 -11.9)" width="32.6" xlink:href="#m"/></g><g id="m" fill-rule="evenodd"><path d="M12.05-4.8q5.45 0 5.45 5.15 0 2.7-2.3 5.3-2.35 2.7-4.95 2.7l-15.85 1q-5.15 0-8.8-6-1.55-3.2.25-5.8 1.6-2.35 4.25-2.35h21.95" fill="url(#n)" transform="translate(15.1 11.9)"/><path d="M-14-6.7q0-2.15 1.5-3.65 1.55-1.55 3.7-1.55H9.65q2.15 0 3.7 1.55 1.5 1.5 1.5 3.65v1.35q0 2.15-1.5 3.65Q11.8-.15 9.65-.15H-8.8q-2.15 0-3.7-1.55Q-14-3.2-14-5.35V-6.7" fill="url(#o)" transform="translate(15.1 11.9)"/></g></defs></svg>

<?xml version="1.0" encoding="UTF-8" standalone="no"?>
<svg xmlns:xlink="http://www.w3.org/1999/xlink" height="26.3px" width="37.6px" xmlns="http://www.w3.org/2000/svg">
  <g transform="matrix(1.0, 0.0, 0.0, 1.0, 18.8, 13.15)">
    <use height="26.3" transform="matrix(1.0, 0.0, 0.0, 1.0, -18.8, -13.15)" width="37.6" xlink:href="#sprite0"/>
    <use height="19.6" transform="matrix(1.0, 0.0, 0.0, 1.0, -9.4, -11.25)" width="19.9" xlink:href="#sprite4"/>
    <use height="17.6" transform="matrix(1.0, 0.0, 0.0, 1.0, -8.4, -10.25)" width="17.9" xlink:href="#sprite5"/>
  </g>
  <defs>
    <g id="sprite0" transform="matrix(1.0, 0.0, 0.0, 1.0, 18.9, 13.15)">
      <use height="12.3" transform="matrix(1.0, 0.0, 0.0, 1.0, -18.9, 0.85)" width="37.35" xlink:href="#sprite1"/>
      <use height="15.0" transform="matrix(1.0, 0.0, 0.0, 1.0, -18.9, -3.5)" width="37.6" xlink:href="#sprite2"/>
      <use height="23.3" transform="matrix(1.0, 0.0, 0.0, 1.0, -18.9, -13.15)" width="37.6" xlink:href="#sprite3"/>
      <use height="21.25" transform="matrix(1.0, 0.0, 0.0, 1.0, -15.1, -11.9)" width="32.6" xlink:href="#shape3"/>
    </g>
    <g id="sprite1" transform="matrix(1.0, 0.0, 0.0, 1.0, 18.7, 6.15)">
      <use height="12.3" transform="matrix(1.0, 0.0, 0.0, 1.0, -18.7, -6.15)" width="37.35" xlink:href="#shape0"/>
    </g>
    <g id="shape0" transform="matrix(1.0, 0.0, 0.0, 1.0, 18.7, 6.15)">
      <path d="M-18.7 -6.15 L18.65 -6.15 Q18.65 -1.05 15.05 2.55 11.45 6.15 6.3 6.15 L-6.4 6.15 Q-11.5 6.15 -15.1 2.55 -18.7 -1.05 -18.7 -6.15" fill="#527ca3" fill-rule="evenodd" stroke="none"/>
    </g>
    <g id="sprite2" transform="matrix(1.0, 0.0, 0.0, 1.0, 18.8, 7.5)">
      <use height="15.0" transform="matrix(1.0, 0.0, 0.0, 1.0, -18.8, -7.5)" width="37.6" xlink:href="#shape1"/>
    </g>
    <g id="shape1" transform="matrix(1.0, 0.0, 0.0, 1.0, 18.8, 7.5)">
      <path d="M18.8 -7.5 L18.8 -2.8 Q18.8 1.5 15.8 4.5 12.75 7.5 8.45 7.5 L-8.5 7.5 Q-12.75 7.5 -15.8 4.5 -18.8 1.5 -18.8 -2.8 L-18.8 -7.5 18.8 -7.5" fill="#a10069" fill-rule="evenodd" stroke="none"/>
    </g>
    <g id="sprite3" transform="matrix(1.0, 0.0, 0.0, 1.0, 18.8, 11.65)">
      <use height="23.3" transform="matrix(1.0, 0.0, 0.0, 1.0, -18.8, -11.65)" width="37.6" xlink:href="#shape2"/>
    </g>
    <g id="shape2" transform="matrix(1.0, 0.0, 0.0, 1.0, 18.8, 11.65)">
      <path d="M18.8 -1.3 L18.8 1.35 Q18.8 5.65 15.8 8.65 12.75 11.65 8.45 11.65 L-8.5 11.65 Q-12.75 11.65 -15.8 8.65 -18.8 5.65 -18.8 1.35 L-18.8 -1.3 Q-18.8 -5.6 -15.8 -8.65 -12.8 -11.65 -8.5 -11.65 L8.45 -11.65 Q12.75 -11.65 15.8 -8.65 18.8 -5.6 18.8 -1.3" fill="#f0009c" fill-rule="evenodd" stroke="none"/>
    </g>
    <g id="shape3" transform="matrix(1.0, 0.0, 0.0, 1.0, 15.1, 11.9)">
      <path d="M12.05 -4.8 Q17.5 -4.8 17.5 0.35 17.5 3.05 15.2 5.65 12.85 8.35 10.25 8.35 L-5.6 9.35 Q-10.75 9.35 -14.4 3.35 -15.95 0.15 -14.15 -2.45 -12.55 -4.8 -9.9 -4.8 L12.05 -4.8" fill="url(#gradient0)" fill-rule="evenodd" stroke="none"/>
      <path d="M-14.0 -6.7 Q-14.0 -8.85 -12.5 -10.35 -10.95 -11.9 -8.8 -11.9 L9.65 -11.9 Q11.8 -11.9 13.35 -10.35 14.85 -8.85 14.85 -6.7 L14.85 -5.35 Q14.85 -3.2 13.35 -1.7 11.8 -0.15 9.65 -0.15 L-8.8 -0.15 Q-10.95 -0.15 -12.5 -1.7 -14.0 -3.2 -14.0 -5.35 L-14.0 -6.7" fill="url(#gradient1)" fill-rule="evenodd" stroke="none"/>
    </g>
    <linearGradient gradientTransform="matrix(0.0, 0.0079, -0.0086, 0.0, 1.3, 2.25)" gradientUnits="userSpaceOnUse" id="gradient0" spreadMethod="pad" x1="-819.2" x2="819.2">
      <stop offset="0.0" stop-color="#c10276"/>
      <stop offset="1.0" stop-color="#ff009c"/>
    </linearGradient>
    <linearGradient gradientTransform="matrix(0.0, 0.007, -0.0072, 0.0, 0.45, -6.0)" gradientUnits="userSpaceOnUse" id="gradient1" spreadMethod="pad" x1="-819.2" x2="819.2">
      <stop offset="0.0" stop-color="#fe9ae0"/>
      <stop offset="1.0" stop-color="#ff00a6"/>
    </linearGradient>
    <g id="sprite4" transform="matrix(1.0, 0.0, 0.0, 1.0, 9.95, 9.8)">
      <use height="19.6" transform="matrix(1.0, 0.0, 0.0, 1.0, -9.95, -9.8)" width="19.9" xlink:href="#shape4"/>
    </g>
    <g id="shape4" transform="matrix(1.0, 0.0, 0.0, 1.0, 9.95, 9.8)">
      <path d="M-5.75 -5.1 Q-1.5 -9.8 -0.2 -9.8 1.0 -9.8 5.5 -5.0 9.95 -0.3 9.95 0.6 9.95 1.75 7.25 2.1 L7.4 5.1 Q7.4 7.95 6.6 8.75 5.55 9.8 0.0 9.8 -5.55 9.8 -6.6 8.75 -7.35 8.0 -7.35 5.15 L-7.2 2.2 Q-9.95 1.95 -9.95 0.6 -9.95 -0.5 -5.75 -5.1" fill="#f0009c" fill-rule="evenodd" stroke="none"/>
    </g>
    <g id="sprite5" transform="matrix(1.0, 0.0, 0.0, 1.0, 8.95, 8.8)">
      <use height="17.6" transform="matrix(1.0, 0.0, 0.0, 1.0, -8.95, -8.8)" width="17.9" xlink:href="#shape5"/>
    </g>
    <g id="shape5" transform="matrix(1.0, 0.0, 0.0, 1.0, 8.95, 8.8)">
      <path d="M-2.05 2.05 L-2.05 6.15 2.05 6.15 2.05 2.05 -2.05 2.05 M-5.0 -4.35 Q-1.0 -8.8 -0.2 -8.8 0.55 -8.8 4.8 -4.25 8.95 0.15 8.95 0.6 8.95 1.0 6.2 1.25 6.7 7.35 5.9 8.05 5.15 8.85 -0.05 8.8 -5.15 8.8 -5.9 8.05 -6.6 7.35 -6.15 1.35 -8.95 1.1 -8.95 0.6 -8.95 0.0 -5.0 -4.35" fill="url(#gradient2)" fill-rule="evenodd" stroke="none"/>
    </g>
    <linearGradient gradientTransform="matrix(-0.0077, -0.0077, 0.0076, -0.0076, 0.0, 0.0)" gradientUnits="userSpaceOnUse" id="gradient2" spreadMethod="pad" x1="-819.2" x2="819.2">
      <stop offset="0.0" stop-color="#febde9"/>
      <stop offset="1.0" stop-color="#ffffff"/>
    </linearGradient>
  </defs>
</svg>
